X:1
T:Canon in D 2.0
T:Canon in D 2.0
T:Steven Sze
C:stevensky
%%score { 1 | 2 }
L:1/8
Q:1/4=96
M:4/4
K:D
V:1 treble nm="Piano"
V:2 bass 
V:1
 z8 | z8 | z8 | z8 | f4 e4 | d4 c4 | B4 A4 | B4 c4 | dcdD A z c2 | dcdD f z ab | gfeg fedf | %11
 B2 G2 A2 A,2 | d/c/d/A/ D/ z3/2 z2 c2 | d/c/d/A/ F/ z3/2 f z ab | gfeg fedf | efge cB A z | %16
 af/g/ aa z g fe | fd/e/ ff z c de | d4- dgfg | e4 A4 | af/g/ af/g/ aABg | fd/e/ fd/e/ fcde | %22
 d4- dAgf | fdAf ecAe | ff/f/ ff ee/e/ ee | dd/d/ dd cc/c/ cc | BB/B/ BB AA/A/ AA | BGBd cAce | %28
 aA/A/ A/F/A/a/ abag | fF/F/ F/D/F/f/ fgfe | BG/D/ G/D/G/B/ dAdf | [ceg]4 [Ace]4 | %32
 aA/a A/a z g fe | fF/f F/f z c de | dADA dgfg | e2 e2 A2 A2 | %36
 a/f/g/a/- a/f/g/a/- a/A/B/c/ d/e/f/g/ | f/d/e/f/- f/d/e/f/- f/F/G/A/ B/A/G/A/ | %38
 G/B/A/G/- G/F/E/F/- F/E/D/E/ F/G/A/B/ | G/B/A/B/- B/c/d/e/ A/B/c/d/ e/f/g/a/ | %40
 a/f/g/a/- a/f/g/a/- a/a/a/b/ a/g/f/e/ | f/d/e/f/- f/d/e/f/- f/f/f/f/ f/c/d/e/ | %42
 d/A/F/A/ d/A/E/A/ d/A/D/A/ d/g/f/g/ | Te4 TA4 | dA D z A2 c2 | dA D z f2 ab | gfed dAdf | %47
 gfed Td2 dc | !stemless![Fdf]8 |] %49
V:2
 D4 A,4 | B,4 F,4 | G,4 D,4 | G,4 A,4 | D4 A,4 | B,4 F,4 | G,4 D,4 | G,4 A,4 | D4 A,4 | B,4 F,4 | %10
 G,4 D,4 | G,4 A,4 | D4 A,4 | B,4 F,4 | G,4 D,4 | G,4 A,4 | D4 A,4 | B,4 F,4 | G,4 D,4 | G,4 A,4 | %20
 [F,D]4 [C,A,]4 | [D,B,]4 [A,,F,]4 | [B,,G,]4 [F,,D,]4 | [B,,G,]4 [C,A,]4 | [F,D]4 [C,A,]4 | %25
 [D,B,]4 [A,,F,]4 | [B,,G,]4 [F,,D,]4 | [B,,G,]4 [C,A,]4 | [F,D]4 [C,A,]4 | [D,B,]4 [A,,F,]4 | %30
 [B,,G,]4 [F,,D,]4 | [B,,G,]4 [C,A,]4 | [F,D]4 [C,A,]4 | [D,B,]4 [A,,F,]4 | [B,,G,]4 [F,,D,]4 | %35
 [B,,G,]4 [C,A,]4 | [F,D]4 [C,A,]4 | [D,B,]4 [A,,F,]4 | [B,,G,]4 [F,,D,]4 | [B,,G,]4 [C,A,]4 | %40
 [F,D]4 [C,A,]4 | [D,B,]4 [A,,F,]4 | [B,,G,]4 [F,,D,]4 | [B,,G,]4 [C,A,]4 | [F,D]4 [C,A,]4 | %45
 [D,B,]4 [A,,F,]4 | [B,,G,]4 [F,,D,]4 | [B,,G,]4 [C,A,]4 | !stemless![D,F,A,D]8 |] %49

